suite-common/icons/assets/icons/trezorConnectedLight.svg

<svg xmlns="http://www.w3.org/2000/svg" fill="none" viewBox="0 0 26 30">
  <path fill="#000" fill-rule="evenodd" d="M10.617.717a1.1 1.1 0 0 0-.543.587c-.058.173-.066.435-.055 1.714l.013 1.51.121.207c.317.538 1.035.656 1.483.242.344-.317.344-.315.36-1.862.008-.857-.004-1.466-.033-1.624-.094-.51-.421-.808-.908-.83q-.287-.012-.438.056M3.813 3.536c-.502.217-.75.88-.504 1.348.036.066.558.612 1.162 1.211C5.64 7.256 5.673 7.281 6.088 7.279c.341-.002.695-.245.851-.584a1.08 1.08 0 0 0-.005-.822c-.054-.111-.483-.572-1.159-1.244-1.152-1.145-1.178-1.164-1.615-1.16-.107 0-.263.031-.347.067m13.607-.001c-.173.074-2.22 2.09-2.329 2.293-.173.325-.143.754.075 1.054.149.206.512.398.752.398.411 0 .459-.035 1.603-1.167.608-.601 1.115-1.139 1.165-1.236.121-.235.12-.637-.002-.876a1.1 1.1 0 0 0-.515-.476c-.183-.077-.558-.072-.749.01m-5.135 6.539c-.981.216-1.831.944-2.153 1.843l-.1.281-.014 4.767c-.009 3.333.002 4.89.036 5.178a6.8 6.8 0 0 0 1.072 2.969c.352.539.55.767 2.342 2.692q1.572 1.69 1.815 1.85c.47.309.442.306 2.814.322 1.802.013 2.173.005 2.417-.052a1.75 1.75 0 0 0 .841-.422c.31-.262 3.118-3.604 3.47-4.13a6.74 6.74 0 0 0 1.129-3.136c.029-.286.046-2.132.045-5.091 0-3.916-.01-4.691-.064-4.947-.163-.777-.728-1.478-1.496-1.857-.704-.348-.382-.331-6.492-.328-4.306.003-5.455.016-5.662.061m-11.31.277c-.602.274-.77 1.047-.333 1.532.301.334.306.335 2.045.335s1.743-.001 2.044-.335a.934.934 0 0 0 0-1.276c-.301-.334-.306-.335-2.044-.335-1.396 0-1.555.007-1.712.079m22.533 1.755c.242.114.383.249.452.431.032.084.047 1.583.047 4.772 0 4.98 0 4.982-.22 5.701-.119.39-.475 1.099-.701 1.396-.2.263-2.581 3.09-2.866 3.403l-.168.184-1.847-.002-1.847-.003-1.614-1.742c-.888-.957-1.713-1.877-1.834-2.044a5.6 5.6 0 0 1-.766-1.604l-.118-.433-.013-4.745c-.007-2.61-.002-4.787.01-4.839.04-.161.249-.369.477-.475l.218-.102h10.574zm-9.988 5.531v3.986h8.97V13.65h-8.97zm-7.819-2.362c-.128.045-.441.33-1.249 1.135-.593.591-1.107 1.13-1.142 1.196-.322.607.17 1.418.859 1.417.429 0 .459-.022 1.606-1.162.676-.672 1.105-1.133 1.159-1.244.11-.226.112-.589.005-.822a.98.98 0 0 0-1.238-.52m14.796 2.362v1.993h-4.984v-3.987h4.984z"/>
</svg>

<svg xmlns="http://www.w3.org/2000/svg" fill="none" viewBox="0 0 26 30"><path d="M10.617 0.717 C 10.385 0.820,10.150 1.075,10.074 1.304 C 10.016 1.477,10.008 1.739,10.019 3.018 L 10.032 4.528 10.153 4.735 C 10.470 5.273,11.188 5.391,11.636 4.977 C 11.980 4.660,11.980 4.662,11.996 3.115 C 12.004 2.258,11.992 1.649,11.963 1.491 C 11.869 0.981,11.542 0.683,11.055 0.661 C 10.864 0.653,10.718 0.672,10.617 0.717 M3.813 3.536 C 3.311 3.753,3.063 4.416,3.309 4.884 C 3.345 4.950,3.867 5.496,4.471 6.095 C 5.640 7.256,5.673 7.281,6.088 7.279 C 6.429 7.277,6.783 7.034,6.939 6.695 C 7.046 6.462,7.044 6.099,6.934 5.873 C 6.880 5.762,6.451 5.301,5.775 4.629 C 4.623 3.484,4.597 3.465,4.160 3.469 C 4.053 3.469,3.897 3.500,3.813 3.536 M17.420 3.535 C 17.247 3.609,15.200 5.625,15.091 5.828 C 14.918 6.153,14.948 6.582,15.166 6.882 C 15.315 7.088,15.678 7.280,15.918 7.280 C 16.329 7.280,16.377 7.245,17.521 6.113 C 18.129 5.512,18.636 4.974,18.686 4.877 C 18.807 4.642,18.806 4.240,18.684 4.001 C 18.583 3.802,18.377 3.612,18.169 3.525 C 17.986 3.448,17.611 3.453,17.420 3.535 M12.285 10.074 C 11.304 10.290,10.454 11.018,10.132 11.917 L 10.032 12.198 10.018 16.965 C 10.009 20.298,10.020 21.855,10.054 22.143 C 10.182 23.227,10.536 24.207,11.126 25.112 C 11.478 25.651,11.676 25.879,13.468 27.804 C 14.516 28.931,15.121 29.547,15.283 29.654 C 15.753 29.963,15.725 29.960,18.097 29.976 C 19.899 29.989,20.270 29.981,20.514 29.924 C 20.871 29.841,21.070 29.741,21.355 29.502 C 21.665 29.240,24.473 25.898,24.825 25.372 C 25.468 24.409,25.837 23.386,25.954 22.236 C 25.983 21.950,26.000 20.104,25.999 17.145 C 25.999 13.229,25.989 12.454,25.935 12.198 C 25.772 11.421,25.207 10.720,24.439 10.341 C 23.735 9.993,24.057 10.010,17.947 10.013 C 13.641 10.016,12.492 10.029,12.285 10.074 M0.975 10.351 C 0.373 10.625,0.205 11.398,0.642 11.883 C 0.943 12.217,0.948 12.218,2.687 12.218 C 4.425 12.218,4.430 12.217,4.731 11.883 C 5.067 11.511,5.067 10.979,4.731 10.607 C 4.430 10.273,4.425 10.272,2.687 10.272 C 1.291 10.272,1.132 10.279,0.975 10.351 M23.508 12.106 C 23.750 12.220,23.891 12.355,23.960 12.537 C 23.992 12.621,24.007 14.120,24.007 17.309 C 24.007 22.289,24.007 22.291,23.787 23.010 C 23.668 23.400,23.312 24.109,23.086 24.406 C 22.886 24.669,20.505 27.496,20.220 27.809 L 20.052 27.993 18.205 27.991 L 16.358 27.988 14.744 26.246 C 13.856 25.289,13.031 24.369,12.910 24.202 C 12.603 23.779,12.283 23.110,12.144 22.598 L 12.026 22.165 12.013 17.420 C 12.006 14.810,12.011 12.633,12.023 12.581 C 12.063 12.420,12.272 12.212,12.500 12.106 L 12.718 12.004 18.005 12.004 L 23.292 12.004 23.508 12.106 M13.520 17.637 L 13.520 21.623 18.005 21.623 L 22.490 21.623 22.490 17.637 L 22.490 13.650 18.005 13.650 L 13.520 13.650 13.520 17.637 M5.701 15.275 C 5.573 15.320,5.260 15.605,4.452 16.410 C 3.859 17.001,3.345 17.540,3.310 17.606 C 2.988 18.213,3.480 19.024,4.169 19.023 C 4.598 19.023,4.628 19.001,5.775 17.861 C 6.451 17.189,6.880 16.728,6.934 16.617 C 7.044 16.391,7.046 16.028,6.939 15.795 C 6.720 15.318,6.196 15.098,5.701 15.275 M20.497 17.637 L 20.497 19.630 18.005 19.630 L 15.513 19.630 15.513 17.637 L 15.513 15.643 18.005 15.643 L 20.497 15.643 20.497 17.637 " stroke="none" fill-rule="evenodd" fill="black"></path></svg>
